.github/assets/images/platform/drbd.svg

<svg width="284" height="73" viewBox="0 0 284 73" fill="none" xmlns="http://www.w3.org/2000/svg">
<g clip-path="url(#clip0_4_5)">
<path d="M266.064 9.687C260.492 3.276 251.244 0.026001 238.577 0.026001H206.921L206.378 3.893C206.477 4.001 206.586 4.103 206.682 4.213V4.214C208.482 6.286 209.732 8.718 210.396 11.445C211.024 14.022 211.125 16.875 210.696 19.925C210.012 24.79 207.629 29.527 203.962 33.483C207.988 37.743 209.82 43.924 208.86 50.756C207.646 59.401 203.665 65.994 197.037 70.363L196.811 71.97H228.312C253.523 71.97 268.065 59.454 271.534 34.771C273.043 24.037 271.202 15.598 266.064 9.687ZM245.721 35.597C244.064 47.39 238.518 52.883 228.268 52.883H225.191L229.937 19.113H232.956C238.845 19.113 242.297 20.064 244.15 22.196C246.178 24.531 246.677 28.789 245.721 35.597ZM204.405 50.13C204.548 49.114 204.616 48.124 204.615 47.163C204.607 42.891 203.202 39.204 200.669 36.545C200.626 36.5 200.582 36.454 200.538 36.409C199.5 35.35 198.28 34.461 196.894 33.769C202.044 30.004 205.473 24.76 206.241 19.298C206.389 18.246 206.461 17.234 206.459 16.263C206.449 12.632 205.387 9.582 203.287 7.165C199.245 2.516 191.38 0.256001 179.242 0.256001H144.897L142.458 17.612C145.028 19.885 146.66 23.197 146.66 26.89C146.66 31.821 143.76 36.076 139.583 38.072L138.637 44.802C143.318 46.577 146.66 51.094 146.66 56.389C146.66 62.885 141.637 68.22 135.272 68.738L134.786 72.199H170.225C191.138 72.201 202.319 64.982 204.405 50.13ZM179.614 47.856C179.08 51.474 176.366 52.884 169.937 52.884H161.683L163.051 43.149H168.99C173.47 43.149 177.611 43.279 179.045 44.847C179.477 45.319 179.691 45.975 179.694 46.838C179.695 47.149 179.668 47.489 179.614 47.856ZM180.824 22.864C180.182 27.143 175.267 27.605 173.184 27.605H165.236L166.429 19.114H173.37C176.01 19.114 179.295 19.114 180.383 20.284C180.723 20.651 180.896 21.202 180.899 21.93C180.899 22.214 180.875 22.526 180.824 22.864Z" fill="white"/>
<path d="M143.26 26.891C143.26 29.2779 142.312 31.5671 140.624 33.2549C138.936 34.9428 136.647 35.891 134.26 35.891C131.873 35.891 129.584 34.9428 127.896 33.2549C126.208 31.5671 125.26 29.2779 125.26 26.891C125.26 24.504 126.208 22.2149 127.896 20.527C129.584 18.8392 131.873 17.891 134.26 17.891C136.647 17.891 138.936 18.8392 140.624 20.527C142.312 22.2149 143.26 24.504 143.26 26.891Z" fill="white"/>
<path d="M143.26 56.391C143.26 58.7779 142.312 61.0671 140.624 62.7549C138.936 64.4428 136.647 65.391 134.26 65.391C131.873 65.391 129.584 64.4428 127.896 62.7549C126.208 61.0671 125.26 58.7779 125.26 56.391C125.26 54.004 126.208 51.7149 127.896 50.027C129.584 48.3392 131.873 47.391 134.26 47.391C136.647 47.391 138.936 48.3392 140.624 50.027C142.312 51.7149 143.26 54.004 143.26 56.391Z" fill="white"/>
<path d="M131.67 70.69V72.2H108.53L108.17 71.23C107.41 69.21 106.92 64.27 106.92 58.63C106.92 50.28 105.88 48.16 96.32 48.16H90.9V72.2H65.23V63.9C71.19 56.88 74.22 47.11 74.22 34.79C74.22 28.72 73.29 23.21 71.46 18.4C69.97 14.5 67.88 11.05 65.23 8.09V0.25H99.39C118.64 0.25 128.27 4.62 130.82 14.99C125.65 16.48 121.86 21.25 121.86 26.89C121.86 30.45 123.38 33.66 125.8 35.93C124.81 36.82 123.71 37.6 122.48 38.24C125.76 39.7 128.23 41.47 129.76 44.85C125.15 46.65 121.86 51.14 121.86 56.39C121.86 62.34 126.07 67.31 131.66 68.51C131.67 69.82 131.67 70.69 131.67 70.69ZM98.33 30.03C106.47 30.03 107.59 27.63 107.59 25.02C107.59 20.08 102.81 19.34 99.97 19.34H90.9V30.03H98.33Z" fill="#EF842C"/>
<path d="M69.72 34.79C69.72 59.61 56.87 72.2 31.53 72.2H0.25V0.25H32.1C56.36 0.25 69.72 12.52 69.72 34.79ZM30.42 53.09C39.71 52.66 44.05 47.22 44.05 36.04C44.05 21.75 39.33 19.34 28.74 19.34H25.92V53.11H29.22C29.63 53.11 30.03 53.1 30.42 53.09Z" fill="#EF842C"/>
<path d="M278.092 7.14335L277.551 7.33014L277.809 7.8414L279.006 10.213H277.686L276.569 7.78502L276.435 7.49401H276.115H275.9H275.4V7.99401V10.213H274.15V4.08801H276.574C277.542 4.08801 278.202 4.26106 278.617 4.54008C279.002 4.79852 279.197 5.15823 279.197 5.69001C279.197 6.04824 279.1 6.33621 278.919 6.57587C278.735 6.81971 278.47 7.01307 278.092 7.14335ZM275.9 4.47901H275.4V4.97901V6.68201V7.18201H275.9H276.367C276.764 7.18201 277.152 7.09475 277.448 6.84353C277.762 6.57823 277.885 6.20657 277.885 5.81701C277.885 5.41659 277.751 5.0334 277.407 4.77965L277.407 4.77965L277.405 4.7784C277.091 4.54843 276.672 4.47901 276.236 4.47901H275.9Z" fill="black" stroke="white"/>
<path d="M282.422 7.29796C282.422 8.86844 281.798 10.3746 280.688 11.4851C279.577 12.5956 278.071 13.2195 276.5 13.2195C274.93 13.2195 273.424 12.5956 272.313 11.4851C271.203 10.3746 270.579 8.86844 270.579 7.29796C270.579 5.72749 271.203 4.22133 272.313 3.11083C273.424 2.00033 274.93 1.37646 276.5 1.37646C278.071 1.37646 279.577 2.00033 280.688 3.11083C281.798 4.22133 282.422 5.72749 282.422 7.29796Z" stroke="white" stroke-width="1.35925"/>
</g>
<defs>
<clipPath id="clip0_4_5">
<rect width="283.104" height="72.45" fill="white"/>
</clipPath>
</defs>
</svg>

<?xml version="1.0" encoding="UTF-8" standalone="no"?>
<svg
   xmlns:svg="http://www.w3.org/2000/svg"
   xmlns="http://www.w3.org/2000/svg"
   xmlns:xlink="http://www.w3.org/1999/xlink"
   version="1.1"
   width="283.104"
   height="72.449997"
   viewBox="0 0 283.104 72.45"
   id="DRBDlogo"
   style="overflow:visible">
  <path
     d="M 266.064,9.687 C 260.492,3.276 251.244,0.026 238.577,0.026 l -31.656,0 -0.543,3.867 c 0.099,0.108 0.208,0.21 0.304,0.32 l 0,0.001 0.001,0 c 1.8,2.072 3.049,4.504 3.713,7.231 0.628,2.577 0.729,5.43 0.3,8.48 -0.684,4.865 -3.067,9.602 -6.734,13.558 4.026,4.26 5.858,10.441 4.898,17.273 -1.214,8.645 -5.195,15.238 -11.823,19.607 l -0.226,1.607 31.501,0 c 25.211,0 39.753,-12.516 43.222,-37.199 1.509,-10.734 -0.332,-19.173 -5.47,-25.084 z m -20.343,25.91 c -1.657,11.793 -7.203,17.286 -17.453,17.286 l -3.077,0 4.746,-33.77 3.019,0 c 5.889,0 9.341,0.951 11.194,3.083 2.028,2.335 2.527,6.593 1.571,13.401 z M 204.405,50.13 c 0.143,-1.016 0.211,-2.006 0.21,-2.967 -0.008,-4.272 -1.413,-7.959 -3.946,-10.618 -0.043,-0.045 -0.087,-0.091 -0.131,-0.136 -1.038,-1.059 -2.258,-1.948 -3.644,-2.64 5.15,-3.765 8.579,-9.009 9.347,-14.471 0.148,-1.052 0.22,-2.064 0.218,-3.035 -0.01,-3.631 -1.072,-6.681 -3.172,-9.098 C 199.245,2.516 191.38,0.256 179.242,0.256 l -34.345,0 -2.439,17.356 c 2.57,2.273 4.202,5.585 4.202,9.278 0,4.931 -2.9,9.186 -7.077,11.182 l -0.946,6.73 c 4.681,1.775 8.023,6.292 8.023,11.587 0,6.496 -5.023,11.831 -11.388,12.349 l -0.486,3.461 35.439,0 c 20.913,0.002 32.094,-7.217 34.18,-22.069 z m -24.791,-2.274 c -0.534,3.618 -3.248,5.028 -9.677,5.028 l -8.254,0 1.368,-9.735 5.939,0 c 4.48,0 8.621,0.13 10.055,1.698 0.432,0.472 0.646,1.128 0.649,1.991 0.001,0.311 -0.026,0.651 -0.08,1.018 z m 1.21,-24.992 c -0.642,4.279 -5.557,4.741 -7.64,4.741 l -7.948,0 1.193,-8.491 6.941,0 c 2.64,0 5.925,0 7.013,1.17 0.34,0.367 0.513,0.918 0.516,1.646 0,0.284 -0.024,0.596 -0.075,0.934 z"
     id="path5" />
  <path
     d="m 40.984175,-63.12788 a 9,9 0 1 1 -18,0 9,9 0 1 1 18,0 z"
     transform="translate(102.27583,90.01888)"
     id="path2832" />
  <use
     transform="translate(0,29.5)"
     id="use2834"
     xlink:href="#path2832" />
  <path
     d="m 131.67,70.69 v 1.51 h -23.14 l -0.36,-0.97 c -0.76,-2.02 -1.25,-6.96 -1.25,-12.6 0,-8.35 -1.04,-10.47 -10.6,-10.47 H 90.9 V 72.2 H 65.23 V 63.9 C 71.19,56.88 74.22,47.11 74.22,34.79 74.22,28.72 73.29,23.21 71.46,18.4 69.97,14.5 67.88,11.05 65.23,8.09 V 0.25 h 34.16 c 19.25,0 28.88,4.37 31.43,14.74 -5.17,1.49 -8.96,6.26 -8.96,11.9 0,3.56 1.52,6.77 3.94,9.04 -0.99,0.89 -2.09,1.67 -3.32,2.31 3.28,1.46 5.75,3.23 7.28,6.61 -4.61,1.8 -7.9,6.29 -7.9,11.54 0,5.95 4.21,10.92 9.8,12.12 0.01,1.31 0.01,2.18 0.01,2.18 z M 98.33,30.03 c 8.14,0 9.26,-2.4 9.26,-5.01 0,-4.94 -4.78,-5.68 -7.62,-5.68 H 90.9 v 10.69 h 7.43 z"
     id="path10"
     style="fill:#ef842c" />
  <path
     d="M 69.72,34.79 C 69.72,59.61 56.87,72.2 31.53,72.2 H 0.25 V 0.25 H 32.1 c 24.26,0 37.62,12.27 37.62,34.54 z m -39.3,18.3 c 9.29,-0.43 13.63,-5.87 13.63,-17.05 0,-14.29 -4.72,-16.7 -15.31,-16.7 h -2.82 v 33.77 h 3.3 c 0.41,0 0.81,-0.01 1.2,-0.02 z"
     id="path17"
     style="fill:#ef842c" />
  <path
     d="m 276.574,3.588 c 1.014,0 1.789,0.179 2.322,0.537 0.533,0.358 0.801,0.879 0.801,1.565 0,0.457 -0.127,0.853 -0.379,1.187 -0.252,0.334 -0.605,0.581 -1.063,0.739 l 1.564,3.097 -2.453,0 -1.251,-2.719 -0.215,0 0,2.719 -2.25,0 0,-7.125 2.924,0 z m -0.338,1.391 -0.336,0 0,1.703 0.467,0 c 0.332,0 0.586,-0.074 0.758,-0.22 0.174,-0.147 0.26,-0.362 0.26,-0.645 0,-0.288 -0.092,-0.5 -0.275,-0.635 -0.186,-0.136 -0.475,-0.203 -0.874,-0.203 z"
     id="path23" />
  <path
     d="m 264.60506,-7.4771705 a 5.9214997,5.9214997 0 1 1 -11.843,0 5.9214997,5.9214997 0 1 1 11.843,0 z"
     transform="translate(17.816937,14.77517)"
     id="path2852"
     style="fill:none;stroke:#000000;stroke-width:1.35925" />
</svg>
